X:5
T:Mazurka efter Lasse Sorlin
R:mazurka
M:3/4
L:1/8
K:A
|: "A"cA ce dc | "E"B2 Ba g2- | "E"gf ed cB | "A"BA cf e2
|  "A"cA ce dc | "E"B2 Ba g2- | "E"gf ed cB | "A"BA A4 :|
|:  "D"d2 f3 e | "E"ed dB B2 | "E"e2 g3 f | "A" ed cB A2
|   "D"d2 fa fa | "A"A2 ce ce | "E"EG Bd cB | "A"BA ce a2
|   "D"d2 fa fa | "A"A2 ce ce | "E"EG Bd cB | "A"BA A4 :|
